img/vk.svg

<svg width="28" height="29" viewBox="0 0 28 29" fill="none" xmlns="http://www.w3.org/2000/svg">
<rect width="24" height="24" transform="translate(2 3)" fill="white"/>
<path d="M20.1638 15.5149V15.005L22.8152 11.6871C23.232 11.1656 23.4558 10.5206 23.4558 9.85622C23.4558 9.20731 22.9309 8.68201 22.2826 8.68201H19.3958C18.9481 8.68201 18.5468 8.94852 18.3731 9.35795C17.8135 10.8952 17.0802 12.363 16.1849 13.7304C15.907 13.9467 15.5288 13.9737 15.2239 13.796V9.58198C15.22 9.08371 14.8187 8.68201 14.3247 8.68201H10.6969C10.4692 8.68201 10.284 8.86741 10.284 9.09144C10.284 9.19959 10.3264 9.30774 10.4036 9.38499L10.6274 9.60902C10.9323 9.91416 11.106 10.3275 11.106 10.7601V13.8926C11.0674 13.9312 11.0172 13.9582 10.9632 13.9698C10.8088 13.9467 10.6699 13.8655 10.5734 13.7458C9.5121 12.2085 8.57428 10.5901 7.76769 8.90604C7.69822 8.76698 7.55542 8.68201 7.40105 8.68201H4.76514C4.17466 8.68201 3.69611 9.16096 3.69611 9.75193V9.96051C3.69611 10.8296 3.93924 11.6832 4.39464 12.421C6.60217 15.9784 9.63174 20.2156 11.5189 20.2156H14.2127C14.7723 20.2156 15.2239 19.7637 15.2239 19.2036V18.4967C15.2239 18.0796 15.5596 17.7435 15.9765 17.7435C16.1771 17.7435 16.3701 17.8247 16.509 17.9637L18.2187 19.6748C18.5661 20.0225 19.033 20.2156 19.5232 20.2156H22.4601C23.0081 20.2156 23.4558 19.7675 23.4558 19.219C23.4558 18.9564 23.3516 18.7015 23.1664 18.5161L20.1638 15.5149Z" fill="#08415C"/>
<path d="M14 27.0671C21.1797 27.0671 27 21.2468 27 14.0671C27 6.88744 21.1797 1.06714 14 1.06714C6.8203 1.06714 1 6.88744 1 14.0671C1 21.2468 6.8203 27.0671 14 27.0671Z" stroke="#08415C" stroke-width="2" stroke-miterlimit="10"/>
</svg>

<svg width="28" height="29" viewBox="0 0 28 29" fill="none" xmlns="http://www.w3.org/2000/svg"><path fill="#fff" d="M2 3h24v24H2z"/><path d="M20.164 15.515v-.51l2.651-3.318a2.93 2.93 0 0 0 .64-1.83c0-.65-.524-1.175-1.172-1.175h-2.887a1.11 1.11 0 0 0-1.023.676 21.252 21.252 0 0 1-2.188 4.372.857.857 0 0 1-.961.066V9.582a.903.903 0 0 0-.9-.9h-3.627a.413.413 0 0 0-.293.703l.223.224c.305.305.479.719.479 1.151v3.133a.288.288 0 0 1-.143.077.62.62 0 0 1-.39-.224 35.542 35.542 0 0 1-2.805-4.84.408.408 0 0 0-.367-.224H4.765a1.07 1.07 0 0 0-1.069 1.07v.209c0 .869.243 1.722.699 2.46 2.207 3.557 5.237 7.795 7.124 7.795h2.694a1.01 1.01 0 0 0 1.01-1.012v-.707a.751.751 0 0 1 1.286-.533l1.71 1.71c.347.349.814.542 1.304.542h2.937a.999.999 0 0 0 .706-1.7l-3.002-3.001z" fill="#08415C"/><path d="M14 27.067c7.18 0 13-5.82 13-13s-5.82-13-13-13-13 5.82-13 13 5.82 13 13 13z" stroke="#08415C" stroke-width="2" stroke-miterlimit="10"/></svg>
